picto/light-framed.svg

<svg class="color-immutable" width="30" height="30" viewBox="0 0 30 30" fill="none" xmlns="http://www.w3.org/2000/svg"><path d="M30 0H0V30H30V0Z" fill="#2D327D"/><path d="M25.5 3C26.325 3 27 3.675 27 4.5V25.5C27 26.325 26.325 27 25.5 27H4.5C3.675 27 3 26.325 3 25.5V4.5C3 3.675 3.675 3 4.5 3H25.5ZM25.5 2.625H4.5C3.46613 2.625 2.625 3.46613 2.625 4.5V25.5C2.625 26.5339 3.46613 27.375 4.5 27.375H25.5C26.5339 27.375 27.375 26.5339 27.375 25.5V4.5C27.375 3.46613 26.5339 2.625 25.5 2.625Z" fill="white"/><path d="M8.63604 21.739C8.54004 21.739 8.44412 21.7024 8.37084 21.6292C8.22437 21.4827 8.22437 21.2452 8.37084 21.0988L9.96182 19.5079C10.1083 19.3615 10.3457 19.3615 10.4921 19.5079C10.6386 19.6543 10.6386 19.8918 10.4921 20.0382L8.90117 21.6292C8.82804 21.7023 8.73204 21.739 8.63604 21.739Z" fill="white"/><path d="M21.364 21.739C21.268 21.739 21.1721 21.7024 21.0988 21.6292L19.5078 20.0382C19.3613 19.8917 19.3613 19.6543 19.5078 19.5079C19.6543 19.3615 19.8917 19.3615 20.0381 19.5079L21.6291 21.0988C21.7756 21.2453 21.7756 21.4828 21.6291 21.6292C21.5559 21.7023 21.46 21.739 21.364 21.739Z" fill="white"/><path d="M8.25 15.375H6C5.79293 15.375 5.625 15.2071 5.625 15C5.625 14.7929 5.79293 14.625 6 14.625H8.25C8.45708 14.625 8.625 14.7929 8.625 15C8.625 15.2071 8.45708 15.375 8.25 15.375Z" fill="white"/><path d="M24 15.375H21.75C21.5429 15.375 21.375 15.2071 21.375 15C21.375 14.7929 21.5429 14.625 21.75 14.625H24C24.2071 14.625 24.375 14.7929 24.375 15C24.375 15.2071 24.2071 15.375 24 15.375Z" fill="white"/><path d="M15 24.375C14.7929 24.375 14.625 24.2071 14.625 24V21.75C14.625 21.5429 14.7929 21.375 15 21.375C15.2071 21.375 15.375 21.5429 15.375 21.75V24C15.375 24.2071 15.2071 24.375 15 24.375Z" fill="white"/><path d="M17.4742 10.1809V9.75H12.5257V10.1807C12.5257 10.7909 12.273 11.3699 11.8388 11.7985C10.9669 12.6591 10.4445 13.8727 10.5047 15.208C10.6086 17.5145 12.4779 19.3874 14.7843 19.495C17.3676 19.6156 19.5 17.5568 19.5 15C19.5 13.7432 18.9844 12.6072 18.1535 11.791C17.7209 11.366 17.4742 10.7872 17.4742 10.1809Z" fill="white"/><path d="M17.4749 9V6.75C17.4749 6.33578 17.1391 6 16.7249 6H13.2749C12.8607 6 12.5249 6.33578 12.5249 6.75V9H17.4749Z" fill="white"/></svg>

<svg class="color-immutable" width="30" height="30" viewBox="0 0 30 30" fill="none" xmlns="http://www.w3.org/2000/svg"><g clip-path="url(#a)"><path d="M30 0H0v30h30V0Z" fill="#2D327D"/><path d="M25.5 3c.825 0 1.5.675 1.5 1.5v21c0 .825-.675 1.5-1.5 1.5h-21c-.825 0-1.5-.675-1.5-1.5v-21C3 3.675 3.675 3 4.5 3h21Zm0-.375h-21A1.877 1.877 0 0 0 2.625 4.5v21c0 1.034.841 1.875 1.875 1.875h21a1.877 1.877 0 0 0 1.875-1.875v-21A1.877 1.877 0 0 0 25.5 2.625Z" fill="#fff"/><path d="M8.636 21.739a.374.374 0 0 1-.265-.64l1.59-1.591a.375.375 0 0 1 .531.53l-1.59 1.591a.374.374 0 0 1-.266.11ZM21.364 21.739a.374.374 0 0 1-.265-.11l-1.591-1.59a.375.375 0 1 1 .53-.531l1.591 1.59a.375.375 0 0 1-.265.641ZM8.25 15.375H6a.375.375 0 0 1 0-.75h2.25a.375.375 0 0 1 0 .75ZM24 15.375h-2.25a.375.375 0 0 1 0-.75H24a.375.375 0 0 1 0 .75ZM15 24.375a.375.375 0 0 1-.375-.375v-2.25a.375.375 0 0 1 .75 0V24a.375.375 0 0 1-.375.375ZM17.474 10.18v-.43h-4.948v.43c0 .61-.253 1.19-.687 1.619a4.486 4.486 0 0 0-1.334 3.409 4.514 4.514 0 0 0 4.28 4.287 4.5 4.5 0 0 0 3.369-7.704 2.258 2.258 0 0 1-.68-1.61ZM17.475 9V6.75a.75.75 0 0 0-.75-.75h-3.45a.75.75 0 0 0-.75.75V9h4.95Z" fill="#fff"/></g><defs><clipPath id="a"><path fill="#fff" d="M0 0h30v30H0z"/></clipPath></defs></svg>
